public/avatar/body/82.svg

<svg xmlns:xlink="http://www.w3.org/1999/xlink" height="82" width="84.85" xmlns="http://www.w3.org/2000/svg"><g transform="translate(37.4 42.25)"><use height="2.4" transform="translate(-6.8 -2.8)" width="2.35" xlink:href="#a"/><use height="38" transform="translate(-11.95 -17.45)" width="32.05" xlink:href="#b"/><use height="21.6" transform="translate(-12.25 -17.95)" width="32.65" xlink:href="#c"/><use height="24.1" transform="translate(-20.9 2.2)" width="50.35" xlink:href="#d"/></g><defs><path d="M-5.65-2.8q2.25.95.2 2.25-.5.35-.9-.15-1.2-1.55.7-2.1" fill="#d1c0b1" fill-rule="evenodd" transform="translate(6.8 2.8)" id="a"/><path d="M27.35 7.4q2.15 4.15 3.55 8.75 1.45 4.7 1.15 9.5-.35 4.95-4.2 8.1-3.8 3.2-8.75 4.05l-2.6.2q-3.6 0-7.05-1.15-4.65-1.6-7.1-5.5Q-.2 27.4.05 23q.2-4.4 2-9.3Q3.85 8.75 7 5.05 10.1 1.3 14.7.1l1.8-.1q1.9.05 3.7.8 4.75 2.05 7.15 6.6" fill="#fff" fill-rule="evenodd" transform="translate(-.05)" id="e"/><path d="M31.9 20.6q-.3-2.25-1-4.45-1.4-4.6-3.55-8.75-2.4-4.55-7.15-6.6-2.65-1.1-5.5-.7Q10.1 1.3 7 5.05q-3.15 3.7-4.95 8.65Q.7 17.3.25 20.6" fill="none" stroke="#333" stroke-linecap="round" stroke-linejoin="round" transform="translate(.25 .5)" id="f"/><use height="38" width="32.05" xlink:href="#e" id="b"/><use height="21.6" width="32.65" xlink:href="#f" id="c"/><g id="d"><path d="m20.85 22.25.25-.05 2-.1 1.55-.35.1-.05.25-.05q.4 0 .7-.35l.3-.95-.3.95q-.3.35-.7.35l.75-1.4.25.1 1.75 1.5-2.05.55-.65.7q-7.85 2.4-16.2 3.2l-19.4-1.2q-4.9-.8-9.45-2.85l1.45-1.9.3.2-.3-.2.1-.15.2.35.05.05.05.15.6 1.4 1.75.2-1.75-.2-.6-1.4 1.05 1.15 1.3.45h.1l.15.05 1.6.45 2.7.45-2.7-.45-1.6-.45 2.45-.2 1.85 1.1 1.65.25 2.4.45 4.2.7 2.35-.15-2.35.15-4.2-.7 2.85-.7q1.85 1 3.7 1.25l.85-.25 4.15-.4.95-.45 1.8.7q3.3 1.6 6.15-.65l2.3.35q3.05.55 5.3-1.6M4.35 23.9q2.55.15 5.05 1.4 4-1.85 8.35-.95l1.2-.65 4.15-1.6-4.15 1.6-1.2.65q-4.35-.9-8.35.95-2.5-1.25-5.05-1.4" fill="#e0e7ff" fill-rule="evenodd" transform="translate(20.9 -2.2)"/><path d="M16.7 7q2.2-1.4 2.75-3.8l.1-1 .9 6.45.55-.3 1.4 1.55-3.75.9-.2-.75q-4.55 2.55-9.8 2.55l-13.2-.6-3.6-.95-3.75-1.15 1.2 1.55-2.15.05q3.4 2.8 7.85 3.1l-.5.25-.35.5-.2.45-1.45.7.95 2.35 1.3-.4.35-.05.7.3 1.1-.25-.25-1.35.9-.85-1.5-.6.25-.85 2.75.15 2.45-.15.1 6.5-12.35-1.6q-3.95-.45-5.9-3.1l-2.2-1.2 2.15-2.85 4.5-3.7.45-5.9.9 2.55.35.75 1.05 1.9.7.25Q-.7 5.6 4.4 11.95 8.8 5.1 16.7 7m9.9 7.6.15.15 1.35 2.05-.25-.35-1.25-1.85m1.5 2.3h.1l.75 1.8v.1l-.85-1.9m-7 5.3 3.35-.45-1.35.35 1.35-.35h.2l-1.55.35-2 .1m3.65-.5.95-1.4.05-.05-.75 1.4-.25.05m3.95-2.35.1-.05-.05.05h-.05m-47.5.65-1.5-.75.7-2.6v-.05l1.7.3 1.55 2.4 4 1 1.75.25q5.5.7 11.45 2.2l.95-.25.25.25q.3.3.5-.45l2.35-.75 3.3-.35q.15 1.45 1.15 2.55l.25.25 2.1-.4-1-1.65 2.3.45 4.55 1.2-.75-2.65.55.2L18.6 23l2.25-.75q-2.25 2.15-5.3 1.6l-2.3-.35q-2.85 2.25-6.15.65l-1.8-.7-.95.45-4.15.4-.85.25q-1.85-.25-3.7-1.25l-2.85.7-2.4-.45-1.65-.25-1.85-1.1-2.45.2-.15-.05h-.1l-1.3-.45-1.05-1.15-.05-.15-.05-.05-.2-.35-.35-.2m35.1-2.55-.65.2-1.15-3.25.7-.15 1.1 3.2m-.35 1.15.5.6-.25.1-.25-.7M2.8 20.95l.45-5.9 3.5.25 1.05 4.3-5 1.35m7.35-.85L9 15.25l1.45-.3 1.95 5.9-2.25-.75" fill="#ff6969" fill-rule="evenodd" transform="translate(20.9 -2.2)"/><path d="M-9.45 8.15q.85-2.85 3.35-1.4l.45.45q.35-1.45 1.55-1.9l1.95.3.9 1.55q2.7-1.95 4.2.7L2.75 9q1.7-.8 3.35-.25-.15-4.4 3.9-2.8l.4-1.3q1.6-1.25 3 .3l.55.8.8-1.4 1.1.1L16.7 7Q8.8 5.1 4.4 11.95-.7 5.6-8.75 8.4l-.7-.25" fill="#f20000" fill-rule="evenodd" transform="translate(20.9 -2.2)"/><path d="m22.4 9.9 4.2 4.7 1.25 1.85-.35-.45-1.95-.05q-1.75.8-2.85 2.55l-2.35.1.35-1.65L19 17l-.25-.95-.85-.25-.75.5-.15.95-.7.2-1.1-3.2-.7.15 1.15 3.25.3.95.25.7-1.85.85-1.95.7-1.95-5.9-1.45.3 1.15 4.85-2.35-.5-1.05-4.3-3.5-.25-.45 5.9-1.2.35-.1-6.5-2.45.15-2.75-.15-.25.85L-5 14.6q-4.45-.3-7.85-3.1l2.15-.05-1.2-1.55 3.75 1.15 3.6.95 13.2.6q5.25 0 9.8-2.55l.2.75 3.75-.9m-1.65 9.95 2.2.55.45-.2 2.4-3.5 2.3.2.85 1.9-.15.5-.1.05-2.55.45-.15.15-.1.15-.15.15-.05.05-.95 1.4-.3.05.3-.05-.1.05h-.2l-3.35.45-.25.05-2.25.75-1.25-1.85 1.15-.9 2.25-.4m-4.2.55.25.55.75 2.65L13 22.4l3.55-2M1.5 14.8l3.25.15q6.65.05 12.6-2.8l-3.1.5Q7.65 13.95 1 13.7l-10.25-1.6-.3.5q5.45 1.75 11.05 2.2m6.7 6.4 2.5.75 1 1.65-2.1.4-.25-.25q-1-1.1-1.15-2.55m-6.4 1.3.75-.2q-.2.75-.5.45l-.25-.25" fill="#f74242" fill-rule="evenodd" transform="translate(20.9 -2.2)"/><path d="m20.35 18.6 2.35-.1q1.1-1.75 2.85-2.55l1.95.05.35.45.25.35.1.1h-.1l-2.3-.2-2.4 3.5-.45.2-2.2-.55-.05-.5-.35-.75m-3.9.6.1 1.2-3.55 2-2.3-.45-2.5-.75-3.3.35-2.35.75-.75.2-.95.25q-5.95-1.5-11.45-2.2l-1.75-.25-4-1-1.55-2.4-1.7-.3h-.05l.2-.3.2-.35.4-.55 2.2 1.2q1.95 2.65 5.9 3.1L1.6 21.3l1.2-.35 5-1.35 2.35.5 2.25.75 1.95-.7 1.85-.85.25-.1" fill="#b60c0c" fill-rule="evenodd" transform="translate(20.9 -2.2)"/><path d="m20.35 18.6.35.75.05.5-2.25.4-1.15.9-.55-.2-.25-.55-.1-1.2-.5-.6-.3-.95.65-.2.7-.2.15-.95.75-.5.85.25.25.95 1.7-.05-.35 1.65M-5 14.6l1.05 1.05 1.5.6-.9.85.25 1.35-1.1.25-.7-.3-.35.05-1.3.4-.95-2.35 1.45-.7.2-.45.35-.5.5-.25m22.8 3.25q-.25.25-.25.6l.25.6.5.25.55-.25.2-.6-.2-.6q-.25-.25-.55-.25-.3 0-.5.25M-5 16.25l-.6.2-.25.5.25.5.6.2.6-.2.25-.5q0-.3-.25-.5l-.6-.2" fill="#fff" fill-rule="evenodd" transform="translate(20.9 -2.2)"/><path d="M1.5 14.8q-5.6-.45-11.05-2.2l.3-.5L1 13.7q6.65.25 13.25-1.05l3.1-.5Q11.4 15 4.75 14.95L1.5 14.8" fill="#9c1b1b" fill-rule="evenodd" transform="translate(20.9 -2.2)"/><path d="M17.8 17.85q.2-.25.5-.25t.55.25l.2.6-.2.6-.55.25-.5-.25-.25-.6q0-.35.25-.6M-5 16.25l.6.2q.25.2.25.5l-.25.5-.6.2-.6-.2-.25-.5.25-.5.6-.2" fill="#ffc300" fill-rule="evenodd" transform="translate(20.9 -2.2)"/><path d="m24.45 21.75.3-.05.25-.05q.4 0 .7-.35l.3-.95m-1.55 1.4-1.35.35-4.15 1.6-1.2.65q-4.35-.9-8.35.95-2.5-1.25-5.05-1.4l-4.15.4-.85.25-2.35.15-4.2-.7-2.4-.45-1.65-.25-2.7-.45-1.6-.45-.15-.05h-.1l-1.75-.2-.6-1.4-.05-.15" fill="none" stroke="#bac1d1" stroke-linecap="round" stroke-linejoin="round" transform="translate(20.9 -2.2)"/><path d="M26.75 14.75 24.85 12m3.35 4.9-.1-.1-1.35-2.05M25.7 20.3l.05-.05 3-.9.05-.05.15-.5v-.1l-.75-1.8m-46.75 3.45-.25-.35-1.5-.75-.1-.4q0-4 3.7-6.3m-1.5 8.05-.05-.05-.3-.2" fill="none" stroke="#9c1b1b" stroke-linecap="round" stroke-linejoin="round" transform="translate(20.9 -2.2)"/></g></defs></svg>

<?xml version="1.0" encoding="UTF-8" standalone="no"?>
<svg xmlns:xlink="http://www.w3.org/1999/xlink" height="82.0px" width="84.85px" xmlns="http://www.w3.org/2000/svg">
  <g transform="matrix(1.0, 0.0, 0.0, 1.0, 37.4, 42.25)">
    <use height="2.4" transform="matrix(1.0, 0.0, 0.0, 1.0, -6.8, -2.8)" width="2.35" xlink:href="#shape0"/>
    <use height="38.0" transform="matrix(1.0, 0.0, 0.0, 1.0, -11.95, -17.45)" width="32.05" xlink:href="#sprite0"/>
    <use height="21.6" transform="matrix(1.0, 0.0, 0.0, 1.0, -12.25, -17.95)" width="32.65" xlink:href="#sprite1"/>
    <use height="24.1" transform="matrix(1.0, 0.0, 0.0, 1.0, -20.9, 2.2)" width="50.35" xlink:href="#shape3"/>
  </g>
  <defs>
    <g id="shape0" transform="matrix(1.0, 0.0, 0.0, 1.0, 6.8, 2.8)">
      <path d="M-5.65 -2.8 Q-3.4 -1.85 -5.45 -0.55 -5.95 -0.2 -6.35 -0.7 -7.55 -2.25 -5.65 -2.8" fill="#d1c0b1" fill-rule="evenodd" stroke="none"/>
    </g>
    <g id="sprite0" transform="matrix(1.0, 0.0, 0.0, 1.0, -0.05, 0.0)">
      <use height="38.0" transform="matrix(1.0, 0.0, 0.0, 1.0, 0.05, 0.0)" width="32.05" xlink:href="#shape1"/>
    </g>
    <g id="shape1" transform="matrix(1.0, 0.0, 0.0, 1.0, -0.05, 0.0)">
      <path d="M27.35 7.4 Q29.5 11.55 30.9 16.15 32.35 20.85 32.05 25.65 31.7 30.6 27.85 33.75 24.05 36.95 19.1 37.8 L16.5 38.0 Q12.9 38.0 9.45 36.85 4.8 35.25 2.35 31.35 -0.2 27.4 0.05 23.0 0.25 18.6 2.05 13.7 3.85 8.75 7.0 5.05 10.1 1.3 14.7 0.1 L16.5 0.0 Q18.4 0.05 20.2 0.8 24.95 2.85 27.35 7.4" fill="#ffffff" fill-rule="evenodd" stroke="none"/>
    </g>
    <g id="sprite1" transform="matrix(1.0, 0.0, 0.0, 1.0, 0.25, 0.5)">
      <use height="21.6" transform="matrix(1.0, 0.0, 0.0, 1.0, -0.25, -0.5)" width="32.65" xlink:href="#shape2"/>
    </g>
    <g id="shape2" transform="matrix(1.0, 0.0, 0.0, 1.0, 0.25, 0.5)">
      <path d="M31.9 20.6 Q31.6 18.35 30.9 16.15 29.5 11.55 27.35 7.4 24.95 2.85 20.2 0.8 17.55 -0.3 14.7 0.1 10.1 1.3 7.0 5.05 3.85 8.75 2.05 13.7 0.7 17.3 0.25 20.6" fill="none" stroke="#333333" stroke-linecap="round" stroke-linejoin="round" stroke-width="1.0"/>
    </g>
    <g id="shape3" transform="matrix(1.0, 0.0, 0.0, 1.0, 20.9, -2.2)">
      <path d="M20.85 22.25 L21.1 22.2 23.1 22.1 24.65 21.75 24.75 21.7 25.0 21.65 Q25.4 21.65 25.7 21.3 L26.0 20.35 25.7 21.3 Q25.4 21.65 25.0 21.65 L25.75 20.25 26.0 20.35 27.75 21.85 25.7 22.4 25.05 23.1 Q17.2 25.5 8.85 26.3 L-10.55 25.1 Q-15.45 24.3 -20.0 22.25 L-18.55 20.35 -18.25 20.55 -18.55 20.35 -18.45 20.2 -18.25 20.55 -18.2 20.6 -18.15 20.75 -17.55 22.15 -15.8 22.35 -17.55 22.15 -18.15 20.75 -17.1 21.9 -15.8 22.35 -15.7 22.35 -15.55 22.4 -13.95 22.85 -11.25 23.3 -13.95 22.85 -15.55 22.4 -13.1 22.2 -11.25 23.3 -9.6 23.55 -7.2 24.0 -3.0 24.7 -0.65 24.55 -3.0 24.7 -7.2 24.0 -4.35 23.3 Q-2.5 24.3 -0.65 24.55 L0.2 24.3 4.35 23.9 5.3 23.45 7.1 24.15 Q10.4 25.75 13.25 23.5 L15.55 23.85 Q18.6 24.4 20.85 22.25 M4.35 23.9 Q6.9 24.05 9.4 25.3 13.4 23.45 17.75 24.35 L18.95 23.7 23.1 22.1 18.95 23.7 17.75 24.35 Q13.4 23.45 9.4 25.3 6.9 24.05 4.35 23.9" fill="#e0e7ff" fill-rule="evenodd" stroke="none"/>
      <path d="M16.7 7.0 Q18.9 5.6 19.45 3.2 L19.55 2.2 20.45 8.65 21.0 8.35 22.4 9.9 18.65 10.8 18.45 10.05 Q13.9 12.6 8.65 12.6 L-4.55 12.0 -8.15 11.05 -11.9 9.9 -10.7 11.45 -12.85 11.5 Q-9.45 14.3 -5.0 14.6 L-5.5 14.85 -5.85 15.35 -6.05 15.8 -7.5 16.5 -6.55 18.85 -5.25 18.45 -4.9 18.4 -4.2 18.7 -3.1 18.45 -3.35 17.1 -2.45 16.25 -3.95 15.65 -3.7 14.8 -0.95 14.95 1.5 14.8 1.6 21.3 -10.75 19.7 Q-14.7 19.25 -16.65 16.6 L-18.85 15.4 -16.7 12.55 -12.2 8.85 -11.75 2.95 -10.85 5.5 -10.5 6.25 -9.45 8.15 -8.75 8.4 Q-0.7 5.6 4.4 11.95 8.8 5.1 16.7 7.0 M26.6 14.6 L26.75 14.75 28.1 16.8 27.85 16.45 26.6 14.6 M28.1 16.9 L28.2 16.9 28.95 18.7 28.95 18.8 28.1 16.9 M21.1 22.2 L24.45 21.75 23.1 22.1 24.45 21.75 24.65 21.75 23.1 22.1 21.1 22.2 M24.75 21.7 L25.7 20.3 25.75 20.25 25.0 21.65 24.75 21.7 M28.7 19.35 L28.8 19.3 28.75 19.35 28.7 19.35 M-18.8 20.0 L-20.3 19.25 -19.6 16.65 -19.6 16.6 -17.9 16.9 -16.35 19.3 -12.35 20.3 -10.6 20.55 Q-5.1 21.25 0.85 22.75 L1.8 22.5 2.05 22.75 Q2.35 23.05 2.55 22.3 L4.9 21.55 8.2 21.2 Q8.35 22.65 9.35 23.75 L9.6 24.0 11.7 23.6 10.7 21.95 13.0 22.4 17.55 23.6 16.8 20.95 17.35 21.15 18.6 23.0 20.85 22.25 Q18.6 24.4 15.55 23.85 L13.25 23.5 Q10.4 25.75 7.1 24.15 L5.3 23.45 4.35 23.9 0.2 24.3 -0.65 24.55 Q-2.5 24.3 -4.35 23.3 L-7.2 24.0 -9.6 23.55 -11.25 23.3 -13.1 22.2 -15.55 22.4 -15.7 22.35 -15.8 22.35 -17.1 21.9 -18.15 20.75 -18.2 20.6 -18.25 20.55 -18.45 20.2 -18.8 20.0 M16.3 17.45 L15.65 17.65 14.5 14.4 15.2 14.25 16.3 17.45 M15.95 18.6 L16.45 19.2 16.2 19.3 15.95 18.6 M2.8 20.95 L3.25 15.05 6.75 15.3 7.8 19.6 2.8 20.95 M10.15 20.1 L9.0 15.25 10.45 14.95 12.4 20.85 10.15 20.1" fill="#ff6969" fill-rule="evenodd" stroke="none"/>
      <path d="M-9.45 8.15 Q-8.6 5.3 -6.1 6.75 L-5.65 7.2 Q-5.3 5.75 -4.1 5.3 L-2.15 5.6 -1.25 7.15 Q1.45 5.2 2.95 7.85 L2.75 9.0 Q4.45 8.2 6.1 8.75 5.95 4.35 10.0 5.95 L10.4 4.65 Q12.0 3.4 13.4 4.95 L13.95 5.75 14.75 4.35 15.85 4.45 16.7 7.0 Q8.8 5.1 4.4 11.95 -0.7 5.6 -8.75 8.4 L-9.45 8.15" fill="#f20000" fill-rule="evenodd" stroke="none"/>
      <path d="M22.4 9.9 L26.6 14.6 27.85 16.45 27.5 16.0 25.55 15.95 Q23.8 16.75 22.7 18.5 L20.35 18.6 20.7 16.95 19.0 17.0 18.75 16.05 17.9 15.8 17.15 16.3 17.0 17.25 16.3 17.45 15.2 14.25 14.5 14.4 15.65 17.65 15.95 18.6 16.2 19.3 14.35 20.15 12.4 20.85 10.45 14.95 9.0 15.25 10.15 20.1 7.8 19.6 6.75 15.3 3.25 15.05 2.8 20.95 1.6 21.3 1.5 14.8 -0.95 14.95 -3.7 14.8 -3.95 15.65 -5.0 14.6 Q-9.45 14.3 -12.85 11.5 L-10.7 11.45 -11.9 9.9 -8.15 11.05 -4.55 12.0 8.65 12.6 Q13.9 12.6 18.45 10.05 L18.65 10.8 22.4 9.9 M20.75 19.85 L22.95 20.4 23.4 20.2 25.8 16.7 28.1 16.9 28.95 18.8 28.8 19.3 28.7 19.35 26.15 19.8 26.0 19.95 25.9 20.1 25.75 20.25 25.7 20.3 24.75 21.7 24.45 21.75 24.75 21.7 24.65 21.75 24.45 21.75 21.1 22.2 20.85 22.25 18.6 23.0 17.35 21.15 18.5 20.25 20.75 19.85 M16.55 20.4 L16.8 20.95 17.55 23.6 13.0 22.4 16.55 20.4 M1.5 14.8 L4.75 14.95 Q11.4 15.0 17.35 12.15 L14.25 12.65 Q7.65 13.95 1.0 13.7 L-9.25 12.1 -9.55 12.6 Q-4.1 14.35 1.5 14.8 M8.2 21.2 L10.7 21.95 11.7 23.6 9.6 24.0 9.35 23.75 Q8.35 22.65 8.2 21.2 M1.8 22.5 L2.55 22.3 Q2.35 23.05 2.05 22.75 L1.8 22.5" fill="#f74242" fill-rule="evenodd" stroke="none"/>
      <path d="M20.35 18.6 L22.7 18.5 Q23.8 16.75 25.55 15.95 L27.5 16.0 27.85 16.45 28.1 16.8 28.2 16.9 28.1 16.9 25.8 16.7 23.4 20.2 22.95 20.4 20.75 19.85 20.7 19.35 20.35 18.6 M16.45 19.2 L16.55 20.4 13.0 22.4 10.7 21.95 8.2 21.2 4.9 21.55 2.55 22.3 1.8 22.5 0.85 22.75 Q-5.1 21.25 -10.6 20.55 L-12.35 20.3 -16.35 19.3 -17.9 16.9 -19.6 16.6 -19.65 16.6 -19.45 16.3 -19.25 15.95 -18.85 15.4 -16.65 16.6 Q-14.7 19.25 -10.75 19.7 L1.6 21.3 2.8 20.95 7.8 19.6 10.15 20.1 12.4 20.85 14.35 20.15 16.2 19.3 16.45 19.2" fill="#b60c0c" fill-rule="evenodd" stroke="none"/>
      <path d="M20.35 18.6 L20.7 19.35 20.75 19.85 18.5 20.25 17.35 21.15 16.8 20.95 16.55 20.4 16.45 19.2 15.95 18.6 15.65 17.65 16.3 17.45 17.0 17.25 17.15 16.3 17.9 15.8 18.75 16.05 19.0 17.0 20.7 16.95 20.35 18.6 M-5.0 14.6 L-3.95 15.65 -2.45 16.25 -3.35 17.1 -3.1 18.45 -4.2 18.7 -4.9 18.4 -5.25 18.45 -6.55 18.85 -7.5 16.5 -6.05 15.8 -5.85 15.35 -5.5 14.85 -5.0 14.6 M17.8 17.85 Q17.55 18.1 17.55 18.45 L17.8 19.05 18.3 19.3 18.85 19.05 19.05 18.45 18.85 17.85 Q18.6 17.6 18.3 17.6 18.0 17.6 17.8 17.85 M-5.0 16.25 L-5.6 16.45 -5.85 16.95 -5.6 17.45 -5.0 17.65 -4.4 17.45 -4.15 16.95 Q-4.15 16.65 -4.4 16.45 L-5.0 16.25" fill="#ffffff" fill-rule="evenodd" stroke="none"/>
      <path d="M1.5 14.8 Q-4.1 14.35 -9.55 12.6 L-9.25 12.1 1.0 13.7 Q7.65 13.95 14.25 12.65 L17.35 12.15 Q11.4 15.0 4.75 14.95 L1.5 14.8" fill="#9c1b1b" fill-rule="evenodd" stroke="none"/>
      <path d="M17.8 17.85 Q18.0 17.6 18.3 17.6 18.6 17.6 18.85 17.85 L19.05 18.45 18.85 19.05 18.3 19.3 17.8 19.05 17.55 18.45 Q17.55 18.1 17.8 17.85 M-5.0 16.25 L-4.4 16.45 Q-4.15 16.65 -4.15 16.95 L-4.4 17.45 -5.0 17.65 -5.6 17.45 -5.85 16.95 -5.6 16.45 -5.0 16.25" fill="#ffc300" fill-rule="evenodd" stroke="none"/>
      <path d="M24.45 21.75 L24.75 21.7 25.0 21.65 Q25.4 21.65 25.7 21.3 L26.0 20.35 M24.45 21.75 L23.1 22.1 18.95 23.7 17.75 24.35 Q13.4 23.45 9.4 25.3 6.9 24.05 4.35 23.9 L0.2 24.3 -0.65 24.55 -3.0 24.7 -7.2 24.0 -9.6 23.55 -11.25 23.3 -13.95 22.85 -15.55 22.4 -15.7 22.35 -15.8 22.35 -17.55 22.15 -18.15 20.75 -18.2 20.6" fill="none" stroke="#bac1d1" stroke-linecap="round" stroke-linejoin="round" stroke-width="1.0"/>
      <path d="M26.75 14.75 L24.85 12.0 M28.2 16.9 L28.1 16.8 26.75 14.75 M25.7 20.3 L25.75 20.25 28.75 19.35 28.8 19.3 28.95 18.8 28.95 18.7 28.2 16.9 M-18.55 20.35 L-18.8 20.0 -20.3 19.25 -20.4 18.85 Q-20.4 14.85 -16.7 12.55 M-18.2 20.6 L-18.25 20.55 -18.55 20.35" fill="none" stroke="#9c1b1b" stroke-linecap="round" stroke-linejoin="round" stroke-width="1.0"/>
    </g>
  </defs>
</svg>
